src/lib/packages/icons/src/assets/filled/envelope-search.svg

<svg width="24" height="24" viewBox="0 0 24 24" fill="none" xmlns="http://www.w3.org/2000/svg">
<path d="M12.884 15.743C13.314 13.845 14.8449 12.314 16.7439 11.883C17.7609 11.652 18.7259 11.732 19.5959 12.031C19.7939 12.099 20 11.964 20 11.755V7C20 5 19 4 17 4H5C3 4 2 5 2 7V16C2 18 3 19 5 19H12.7561C12.9661 19 13.101 18.794 13.032 18.596C12.732 17.726 12.653 16.76 12.884 15.743ZM12.0291 12.179C11.7211 12.403 11.36 12.515 11 12.515C10.64 12.515 10.2779 12.403 9.97095 12.18L5.05908 8.60699C4.72408 8.36399 4.65004 7.89401 4.89404 7.55901C5.13704 7.22601 5.60489 7.149 5.94189 7.394L10.854 10.966C10.942 11.029 11.059 11.03 11.147 10.966L16.0591 7.394C16.3971 7.149 16.8639 7.22501 17.1069 7.55901C17.3509 7.89401 17.2769 8.36299 16.9419 8.60699L12.0291 12.179ZM22.53 20.47L20.98 18.921C21.358 18.344 21.583 17.657 21.583 16.918C21.583 14.896 19.938 13.251 17.917 13.251C15.895 13.251 14.25 14.896 14.25 16.918C14.25 18.939 15.895 20.584 17.917 20.584C18.657 20.584 19.3429 20.36 19.9199 19.982L21.47 21.531C21.616 21.677 21.808 21.751 22 21.751C22.192 21.751 22.384 21.678 22.53 21.531C22.823 21.237 22.823 20.763 22.53 20.47ZM17.917 19.083C16.722 19.083 15.75 18.111 15.75 16.917C15.75 15.722 16.722 14.75 17.917 14.75C19.111 14.75 20.083 15.722 20.083 16.917C20.083 18.111 19.111 19.083 17.917 19.083Z" fill="currentColor"/>
</svg>

<svg xmlns="http://www.w3.org/2000/svg" width="24" height="24" fill="none"><path fill="currentColor" d="M12.884 15.743a5.174 5.174 0 0 1 3.86-3.86 5.16 5.16 0 0 1 2.852.148c.198.068.404-.067.404-.276V7c0-2-1-3-3-3H5C3 4 2 5 2 7v9c0 2 1 3 3 3h7.756c.21 0 .345-.206.276-.404a5.154 5.154 0 0 1-.148-2.853Zm-.855-3.564a1.748 1.748 0 0 1-2.058.001L5.059 8.607a.75.75 0 1 1 .883-1.213l4.912 3.572a.25.25 0 0 0 .293 0l4.912-3.572a.75.75 0 1 1 .883 1.213l-4.913 3.572ZM22.53 20.47l-1.55-1.549a3.645 3.645 0 0 0 .603-2.003 3.67 3.67 0 0 0-3.666-3.667 3.671 3.671 0 0 0-3.667 3.667 3.67 3.67 0 0 0 3.667 3.666c.74 0 1.426-.224 2.003-.602l1.55 1.549a.748.748 0 0 0 1.06 0 .75.75 0 0 0 0-1.061Zm-4.613-1.387a2.17 2.17 0 0 1-2.167-2.166 2.17 2.17 0 0 1 2.167-2.167 2.17 2.17 0 0 1 2.166 2.167 2.169 2.169 0 0 1-2.166 2.166Z"/></svg>
